archdroid-icon-theme/Archdroid-Cyan/categories/scalable/applications-multimedia.svg

<svg xmlns="http://www.w3.org/2000/svg" viewBox="0 0 48 48" fill="#00BCD4"><path d="m6.47 13.3c-1.45.57-2.47 2.03-2.47 3.7v24c0 2.21 1.79 4 4 4h32c2.21 0 4-1.79 4-4v-24c0-2.21-1.79-4-4-4h-23.39l16.53-6.67-1.38-3.33-25.29 10.3m7.53 27.7c-3.31 0-6-2.69-6-6 0-3.31 2.69-6 6-6 3.31 0 6 2.69 6 6 0 3.31-2.69 6-6 6zm26-16h-4v-4h-4v4h-24v-8h32v8"/></svg>

<?xml version="1.0" encoding="UTF-8" standalone="no"?>
<svg
   xmlns:dc="http://purl.org/dc/elements/1.1/"
   xmlns:cc="http://creativecommons.org/ns#"
   xmlns:rdf="http://www.w3.org/1999/02/22-rdf-syntax-ns#"
   xmlns:svg="http://www.w3.org/2000/svg"
   xmlns="http://www.w3.org/2000/svg"
   xmlns:sodipodi="http://sodipodi.sourceforge.net/DTD/sodipodi-0.dtd"
   xmlns:inkscape="http://www.inkscape.org/namespaces/inkscape"
   width="48"
   height="48"
   viewBox="0 0 48 48"
   id="svg2"
   version="1.1"
   inkscape:version="0.91 r13725"
   sodipodi:docname="applications-multimedia.svg"
   style="fill:#00BCD4">
  <metadata
     id="metadata10">
    <rdf:RDF>
      <cc:Work
         rdf:about="">
        <dc:format>image/svg+xml</dc:format>
        <dc:type
           rdf:resource="http://purl.org/dc/dcmitype/StillImage" />
        <dc:title></dc:title>
      </cc:Work>
    </rdf:RDF>
  </metadata>
  <defs
     id="defs8" />
  <sodipodi:namedview
     pagecolor="#ffffff"
     bordercolor="#666666"
     borderopacity="1"
     objecttolerance="10"
     gridtolerance="10"
     guidetolerance="10"
     inkscape:pageopacity="0"
     inkscape:pageshadow="2"
     inkscape:window-width="668"
     inkscape:window-height="480"
     id="namedview6"
     showgrid="false"
     fit-margin-top="0"
     fit-margin-left="0"
     fit-margin-right="0"
     fit-margin-bottom="0"
     inkscape:zoom="6.549153645833335"
     inkscape:cx="-2.903722849048163"
     inkscape:cy="19.99999999999999"
     inkscape:window-x="0"
     inkscape:window-y="30"
     inkscape:window-maximized="0"
     inkscape:current-layer="svg2" />
  <path
     d="M 6.470000000000001,13.3 C 5.02,13.87 4,15.33 4,17 l 0,24 c 0,2.21 1.79,4 4,4 l 32,0 c 2.21,0 4,-1.79 4,-4 l 0,-24 c 0,-2.21 -1.79,-4 -4,-4 L 16.61,13 33.14,6.33 31.76,3 6.470000000000001,13.3 Z M 14,41 C 10.69,41 8,38.31 8,35 8,31.69 10.69,29 14,29 c 3.31,0 6,2.69 6,6 0,3.31 -2.69,6 -6,6 z m 26,-16 -4,0 0,-4 -4,0 0,4 -24,0 0,-8 32,0 0,8 z"
     id="path4"
     inkscape:connector-curvature="0" />
</svg>
